public/footer-logo.svg

<svg width="234" height="49" viewBox="0 0 234 49" fill="none" xmlns="http://www.w3.org/2000/svg">
<path d="M92.8901 30.4551C90.4579 30.4551 88.4463 30.254 86.8279 29.8608C85.2186 29.4676 84.0116 28.8276 83.207 27.9589C82.4023 27.0903 82 25.9473 82 24.5209C82 23.1036 82.4023 21.9515 83.207 21.0737C84.0116 20.1959 85.2186 19.5559 86.8279 19.1535C88.4372 18.7512 90.4579 18.55 92.8901 18.55C95.3041 18.55 97.3065 18.7512 98.9067 19.1535C100.507 19.5559 101.696 20.1959 102.491 21.0737C103.287 21.9515 103.68 23.1036 103.68 24.5209C103.68 25.9381 103.277 27.0903 102.491 27.9589C101.696 28.8276 100.498 29.4676 98.9067 29.8608C97.3065 30.254 95.3041 30.4551 92.8901 30.4551ZM92.8901 27.136C94.0239 27.136 94.9658 27.0445 95.7338 26.8525C96.5019 26.6605 97.0779 26.3679 97.4711 25.9839C97.8643 25.5907 98.0654 25.1061 98.0654 24.53C98.0654 23.954 97.8734 23.4602 97.4803 23.067C97.0871 22.6739 96.511 22.3721 95.7521 22.1709C94.9932 21.9698 94.0331 21.8692 92.8901 21.8692C91.7563 21.8692 90.8054 21.9698 90.019 22.1709C89.2327 22.3721 88.6383 22.6647 88.236 23.0488C87.8337 23.4419 87.6325 23.9265 87.6325 24.53C87.6325 25.1152 87.8337 25.5998 88.2268 25.9839C88.62 26.377 89.2144 26.6605 90.0007 26.8525C90.7779 27.0354 91.7472 27.136 92.8901 27.136Z" fill="#0F1546"/>
<path d="M114.606 28.0516L111.991 28.0059L117.76 18.8896H123.832L115.84 30.1181H110.665L103.039 18.8896H109.083L114.606 28.0516Z" fill="#0F1546"/>
<path d="M138.683 26.0748H144.087C143.95 26.9617 143.511 27.7298 142.77 28.3881C142.029 29.0465 140.95 29.5494 139.542 29.9151C138.134 30.2717 136.333 30.4546 134.148 30.4546C131.843 30.4546 129.85 30.2717 128.177 29.906C126.503 29.5402 125.214 28.9185 124.318 28.0498C123.422 27.1812 122.965 26.0016 122.965 24.5204C122.965 23.0574 123.404 21.887 124.282 21C125.159 20.1222 126.43 19.4913 128.094 19.1073C129.759 18.7233 131.779 18.5312 134.138 18.5312C136.461 18.5312 138.363 18.7415 139.844 19.153C141.325 19.5645 142.413 20.232 143.118 21.1555C143.822 22.079 144.16 23.3317 144.123 24.9044H128.542C128.616 25.2976 128.835 25.6725 129.192 26.0016C129.548 26.3399 130.106 26.6051 130.865 26.8154C131.624 27.0257 132.63 27.1263 133.901 27.1263C135.217 27.1263 136.296 27.0349 137.138 26.852C138.006 26.6691 138.518 26.4131 138.683 26.0748ZM133.919 21.8595C132.301 21.8595 131.066 22.0333 130.216 22.3899C129.365 22.7373 128.872 23.0939 128.716 23.4414H138.793C138.683 23.0482 138.253 22.6825 137.512 22.3533C136.763 22.0241 135.565 21.8595 133.919 21.8595Z" fill="#0F1546"/>
<path d="M145.09 18.8878H150.585V30.1163H145.09V18.8878ZM156.501 23.1214C155.504 23.1214 154.599 23.2128 153.776 23.3957C152.953 23.5785 152.249 23.798 151.664 24.0449C151.088 24.3009 150.649 24.5478 150.357 24.7855L150.311 23.6883C150.357 23.3682 150.475 22.9934 150.677 22.5545C150.878 22.1156 151.143 21.6675 151.481 21.2012C151.82 20.7349 152.231 20.296 152.716 19.8937C153.2 19.4913 153.767 19.1622 154.398 18.9061C155.029 18.6501 155.733 18.5312 156.492 18.5312V23.1214H156.501Z" fill="#0F1546"/>
<path d="M181.337 22.3169L168.948 27.6568L168.737 26.6693H181.475V30.1074H163.699V26.6693L175.997 21.3294L176.208 22.3169H163.699V18.8789H181.337V22.3169Z" fill="#0F1546"/>
<path d="M191.321 30.4272C189.676 30.4272 188.203 30.1986 186.923 29.7323C185.643 29.2659 184.628 28.5893 183.888 27.7024C183.147 26.8154 182.781 25.7456 182.781 24.4929C182.781 23.1762 183.147 22.079 183.888 21.1921C184.628 20.3051 185.643 19.6468 186.923 19.1987C188.203 18.7507 189.676 18.5312 191.321 18.5312C193.15 18.5312 194.741 18.7781 196.076 19.2719C197.411 19.7656 198.444 20.4606 199.167 21.3566C199.889 22.2527 200.255 23.2951 200.255 24.4838C200.255 25.3707 200.045 26.1754 199.633 26.8977C199.222 27.6201 198.627 28.251 197.85 28.7722C197.073 29.3025 196.131 29.7048 195.034 29.9883C193.927 30.29 192.693 30.4272 191.321 30.4272ZM193.379 26.9526C194.54 26.9526 195.601 26.8794 196.57 26.7331C197.539 26.5868 198.316 26.34 198.911 25.9925C199.496 25.645 199.789 25.1421 199.789 24.5021C199.789 23.8437 199.496 23.3408 198.911 22.9934C198.325 22.6459 197.539 22.399 196.57 22.2619C195.601 22.1247 194.54 22.0516 193.379 22.0516C191.824 22.0516 190.617 22.2527 189.758 22.655C188.898 23.0574 188.478 23.67 188.478 24.5021C188.478 25.0324 188.67 25.4896 189.054 25.8553C189.438 26.2211 189.996 26.4954 190.727 26.6783C191.459 26.8612 192.346 26.9526 193.379 26.9526ZM199.798 18.8878H205.293V30.1163H200.118C200.008 29.4122 199.926 28.7356 199.88 28.0773C199.825 27.4189 199.798 26.6508 199.798 25.7639V18.8878Z" fill="#0F1546"/>
<path d="M206.711 14.3076H212.206V30.117H206.711V14.3076ZM226.141 18.8886L217.071 25.1886L217.19 22.2077L226.928 30.1079H219.969L212.316 23.7164L218.872 18.8795H226.141V18.8886Z" fill="#0F1546"/>
<path d="M233.237 13V16.438H227.422V13H233.237ZM227.577 18.8885H233.073V30.117H227.577V18.8885Z" fill="#0F1546"/>
<path d="M60.7139 15.7275C60.7139 15.7275 65.2675 15.7275 65.2675 23.582C65.3224 27.2029 64.5817 31.4364 60.5859 31.4364" fill="#75F7BB"/>
<path d="M4.5563 31.2801C4.5563 31.2801 0.00274415 31.2801 0.00274415 23.4257C-0.052118 19.8048 0.68852 15.5713 4.68431 15.5713" fill="#75F7BB"/>
<path d="M52.4952 3.85864C52.4678 3.84949 52.4312 3.8312 52.4038 3.82205C52.23 3.7489 52.0654 3.6849 51.8826 3.62089C45.9209 1.28011 39.4289 0 32.626 0C25.8413 0 19.3402 1.28011 13.3785 3.62089C13.2048 3.6849 13.0402 3.7489 12.8573 3.82205C12.8299 3.84034 12.7933 3.84949 12.7659 3.85864C12.4916 3.96836 12.2264 4.08724 11.9612 4.21525C7.06021 6.57432 4.09766 11.6856 4.09766 17.1261V31.4726C4.09766 36.9131 7.06936 42.0427 11.9795 44.3926C12.2355 44.5206 12.5007 44.6303 12.7659 44.74C12.7933 44.7583 12.8299 44.7675 12.8573 44.7766C13.031 44.8498 13.1956 44.9138 13.3785 44.9778C19.3402 47.3186 25.8322 48.6078 32.626 48.6078C39.4197 48.6078 45.9209 47.3186 51.8826 44.9778C52.0563 44.9138 52.2209 44.8498 52.4038 44.7766C52.4312 44.7675 52.4678 44.7492 52.4952 44.74C52.7604 44.6303 53.0255 44.5115 53.2815 44.3926C58.1917 42.0427 61.1634 36.9131 61.1634 31.4726V17.1261C61.1634 11.6948 58.2008 6.57432 53.2998 4.21525C53.0347 4.09639 52.7695 3.96836 52.4952 3.85864ZM53.5376 31.8109C53.2724 35.002 50.6847 37.5531 47.4844 37.7543L44.7048 37.928C39.1728 38.2846 26.0791 38.2846 20.538 37.928L17.7675 37.7543C14.5763 37.5531 11.9704 35.002 11.7143 31.8109C11.3577 27.3579 11.3577 21.2408 11.7143 16.7878C11.9704 13.6058 14.5672 11.0456 17.7675 10.8444L20.538 10.6707C23.3085 10.497 27.9627 10.4055 32.6168 10.4055C37.2801 10.4055 41.9342 10.497 44.6956 10.6707L47.4753 10.8444C50.6665 11.0547 53.2633 13.6058 53.5284 16.7878C53.8942 21.2408 53.8942 27.3579 53.5376 31.8109Z" fill="#75F7BB"/>
<path d="M43.4634 16.6338H21.9849V21.864H31.3023L21.8203 27.405V31.986H43.2805V26.7284H33.9448L43.4634 21.2148V16.6338Z" fill="#75F7BB"/>
</svg>

<svg xmlns="http://www.w3.org/2000/svg" width="234" height="49" fill="none" xmlns:v="https://vecta.io/nano"><path d="M92.89 30.455c-2.432 0-4.444-.201-6.062-.594-1.609-.393-2.816-1.033-3.621-1.902S82 25.947 82 24.521c0-1.417.402-2.569 1.207-3.447s2.012-1.518 3.621-1.92 3.63-.604 6.062-.604c2.414 0 4.416.201 6.017.604s2.789 1.042 3.584 1.92 1.189 2.03 1.189 3.447-.403 2.569-1.189 3.438c-.795.869-1.993 1.509-3.584 1.902-1.6.393-3.603.594-6.017.594zm0-3.319c1.134 0 2.076-.091 2.844-.284s1.344-.485 1.737-.869a1.98 1.98 0 0 0 .594-1.454c0-.576-.192-1.07-.585-1.463s-.969-.695-1.728-.896-1.719-.302-2.862-.302c-1.134 0-2.085.101-2.871.302s-1.381.494-1.783.878c-.402.393-.604.878-.604 1.481a1.95 1.95 0 0 0 .594 1.454c.393.393.988.677 1.774.869.777.183 1.747.284 2.889.284zm21.716.916l-2.615-.046 5.769-9.116h6.072l-7.992 11.228h-5.175l-7.626-11.228h6.044l5.523 9.162zm24.077-1.977h5.404c-.137.887-.576 1.655-1.317 2.313s-1.82 1.161-3.228 1.527c-1.408.357-3.209.54-5.394.54-2.305 0-4.298-.183-5.971-.549s-2.963-.987-3.859-1.856-1.353-2.048-1.353-3.529c0-1.463.439-2.633 1.317-3.52.877-.878 2.148-1.509 3.812-1.893s3.685-.576 6.044-.576c2.323 0 4.225.21 5.706.622s2.569 1.079 3.274 2.003 1.042 2.176 1.005 3.749h-15.581c.074.393.293.768.65 1.097.356.338.914.604 1.673.814s1.765.311 3.036.311c1.316 0 2.395-.091 3.237-.274.868-.183 1.38-.439 1.545-.777zm-4.764-4.215c-1.618 0-2.853.174-3.703.53-.851.347-1.344.704-1.5 1.052h10.077c-.11-.393-.54-.759-1.281-1.088-.749-.329-1.947-.494-3.593-.494zm11.171-2.972h5.495v11.229h-5.495V18.888zm11.411 4.234c-.997 0-1.902.091-2.725.274s-1.527.402-2.112.649c-.576.256-1.015.503-1.307.741l-.046-1.097c.046-.32.164-.695.366-1.134a8.01 8.01 0 0 1 .804-1.353 7.21 7.21 0 0 1 1.235-1.308c.484-.402 1.051-.732 1.682-.988s1.335-.375 2.094-.375v4.59h.009zm24.836-.805l-12.389 5.34-.211-.988h12.738v3.438h-17.776v-3.438l12.298-5.34.211.988h-12.509v-3.438h17.638v3.438zm9.984 8.11c-1.645 0-3.118-.229-4.398-.695s-2.295-1.143-3.035-2.03-1.107-1.957-1.107-3.21c0-1.317.366-2.414 1.107-3.301s1.755-1.545 3.035-1.993 2.753-.668 4.398-.668c1.829 0 3.42.247 4.755.741s2.368 1.189 3.091 2.085a4.84 4.84 0 0 1 1.088 3.127c0 .887-.21 1.692-.622 2.414s-1.006 1.353-1.783 1.875c-.777.53-1.719.933-2.816 1.216-1.107.302-2.341.439-3.713.439zm2.058-3.475c1.161 0 2.222-.073 3.191-.22s1.746-.393 2.341-.741c.585-.348.878-.85.878-1.49 0-.658-.293-1.161-.878-1.509s-1.372-.594-2.341-.732-2.03-.21-3.191-.21c-1.555 0-2.762.201-3.621.603s-1.28 1.015-1.28 1.847a1.8 1.8 0 0 0 .576 1.353c.384.365.942.64 1.673.823s1.619.274 2.652.274zm6.419-8.065h5.495v11.229h-5.175l-.238-2.039-.082-2.313v-6.876zm6.913-4.579h5.495v15.809h-5.495V14.308zm19.43 4.581l-9.07 6.3.119-2.981 9.738 7.9h-6.959l-7.653-6.392 6.556-4.837h7.269v.009zM233.237 13v3.438h-5.815V13h5.815zm-5.66 5.889h5.496v11.229h-5.496V18.889z" fill="#0f1546"/><g fill="#75f7bb"><path d="M60.714 15.728s4.554 0 4.554 7.855c.055 3.621-.686 7.854-4.682 7.854m-56.03-.157s-4.554 0-4.554-7.854c-.055-3.621.686-7.854 4.682-7.854"/><path d="M52.495 3.859c-.027-.009-.064-.027-.091-.037l-.521-.201C45.921 1.28 39.429 0 32.626 0a52.57 52.57 0 0 0-19.247 3.621 19.95 19.95 0 0 0-.521.201c-.027.018-.064.027-.091.037a12.86 12.86 0 0 0-.805.357c-4.901 2.359-7.864 7.47-7.864 12.911v14.346c0 5.441 2.972 10.57 7.882 12.92.256.128.521.238.786.347.027.018.064.027.091.037a8.75 8.75 0 0 0 .521.201 52.55 52.55 0 0 0 19.247 3.63 52.6 52.6 0 0 0 19.257-3.63 19.74 19.74 0 0 0 .521-.201c.027-.009.064-.027.091-.037.265-.11.53-.229.786-.347 4.91-2.35 7.882-7.48 7.882-12.92V17.126c0-5.431-2.963-10.552-7.864-12.911-.265-.119-.53-.247-.805-.357zm1.042 27.952c-.265 3.191-2.853 5.742-6.053 5.943l-2.78.174c-5.532.357-18.626.357-24.167 0l-2.771-.174c-3.191-.201-5.797-2.752-6.053-5.943-.357-4.453-.357-10.57 0-15.023.256-3.182 2.853-5.742 6.053-5.943l2.771-.174c2.77-.174 7.425-.265 12.079-.265 4.663 0 9.317.091 12.079.265l2.78.174c3.191.21 5.788 2.761 6.053 5.943a104.28 104.28 0 0 1 .009 15.023zM43.463 16.634H21.985v5.23h9.317l-9.482 5.541v4.581h21.46v-5.258h-9.336l9.519-5.514v-4.581z"/></g></svg>
